svgs/sharp-regular/triangle-exclamation.svg

<svg xmlns="http://www.w3.org/2000/svg" viewBox="0 0 512 512"><!--! Font Awesome Pro 6.6.0 by @fontawesome - https://fontawesome.com License - https://fontawesome.com/license (Commercial License) Copyright 2024 Fonticons, Inc. --><path d="M27.4 432L0 480l55.3 0 401.4 0 55.3 0-27.4-48L283.6 80.4 256 32 228.4 80.4 27.4 432zm401.9 0L82.7 432 256 128.7 429.3 432zM232 296l0 24 48 0 0-24 0-88-48 0 0 88zm48 104l0-48-48 0 0 48 48 0z"/></svg>

<svg xmlns="http://www.w3.org/2000/svg" viewBox="0 0 512 512"><!--! Font Awesome Pro 6.4.0 by @fontawesome - https://fontawesome.com License - https://fontawesome.com/license (Commercial License) Copyright 2023 Fonticons, Inc. --><path d="M27.4 432L0 480H55.3 456.7 512l-27.4-48L283.6 80.4 256 32 228.4 80.4 27.4 432zm401.9 0H82.7L256 128.7 429.3 432zM232 296v24h48V296 208H232v88zm48 104V352H232v48h48z"/></svg>
